images/icon-externe-link.svg

<svg height="26" viewBox="0 0 26 26" width="26" xmlns="http://www.w3.org/2000/svg"><g fill="none" fill-rule="evenodd"><path d="m-5-4.854913h36v36h-36z"/><path d="m25.231725 2.878425c-.1927687-1.15959375-1.0749938-2.04181875-2.23515-2.23515-3.3530062-.55895625-8.9417812-.55895625-10.059075-.55895625-1.1172937 0-6.70606875 0-10.059075.55895625-1.16015625.19333125-2.04238125 1.07555625-2.23515 2.23515-.558675 3.35300625-.558675 8.9415-.558675 10.059075s0 6.7060688.558675 10.059075c.19276875 1.1595938 1.07499375 2.0418188 2.23515 2.23515 3.35300625.5589563 8.9417813.5589563 10.059075.5589563 1.1172938 0 6.7060688 0 10.059075-.5589563 1.1601562-.1933312 2.0423813-1.0755562 2.23515-2.23515.5586187-3.3530062.5586187-8.9415.5586187-10.059075 0-3.35469375 0-6.70606875-.5586187-10.059075zm-3.6358875 2.99019375-1.1953125 10.15987505c-.0802125.6809062-.6311812 1.2096-1.3150687 1.260675-.0362813.0027562-.0719438.0041625-.108225.0041625-.6399563 0-1.2090375-.4279501-1.3804313-1.0541813l-.6522187-2.3841s1.4509125-2.961 1.5696-3.2027062c.1088437-.2216813-.0416813-.2612813-.0421876-.2613938l-7.1060625 7.1058938c-.8119124.8121375-1.7556187.3526312-2.54722495-.4397625-.79318125-.7923938-1.25240625-1.7366626-.44055-2.5485188l5.16223125-5.1622875-3.90481875-1.06835625c-.6613875-.18073125-1.101375-.80499375-1.0503-1.488375.0516375-.68360625.58005-1.2351375 1.260675-1.31506875l10.16015625-1.1953125c.436725-.0516375.8706938.09973125 1.1799563.4095.3103312.309825.4608562.7446375.4097812 1.17995625z" fill="#000" fill-rule="nonzero" transform="translate(.0625 .207587)"/></g></svg>

<?xml version="1.0" encoding="UTF-8"?>
<svg width="26px" height="26px" viewBox="0 0 26 26" version="1.1" xmlns="http://www.w3.org/2000/svg" xmlns:xlink="http://www.w3.org/1999/xlink">
    <!-- Generator: Sketch 45 (43475) - http://www.bohemiancoding.com/sketch -->
    <title>icon-externe-link</title>
    <desc>Created with Sketch.</desc>
    <defs></defs>
    <g id="Page-1" stroke="none" stroke-width="1" fill="none" fill-rule="evenodd">
        <g id="icon-externe-link" transform="translate(-5.000000, -5.000000)">
            <g id="2013-externe-link" transform="translate(0.000000, 0.145087)">
                <g id="_x36_4px_Boxes">
                    <rect id="Rectangle-path" x="0" y="0" width="36" height="36"></rect>
                </g>
                <g id="Production" transform="translate(5.062500, 5.062500)" fill-rule="nonzero" fill="#000000">
                    <path d="M25.231725,2.878425 C25.0389563,1.71883125 24.1567312,0.83660625 22.996575,0.643275 C19.6435688,0.08431875 14.0547938,0.08431875 12.9375,0.08431875 C11.8202063,0.08431875 6.23143125,0.08431875 2.878425,0.643275 C1.71826875,0.83660625 0.83604375,1.71883125 0.643275,2.878425 C0.0846,6.23143125 0.0846,11.819925 0.0846,12.9375 C0.0846,14.055075 0.0846,19.6435688 0.643275,22.996575 C0.83604375,24.1561688 1.71826875,25.0383938 2.878425,25.231725 C6.23143125,25.7906813 11.8202063,25.7906813 12.9375,25.7906813 C14.0547938,25.7906813 19.6435688,25.7906813 22.996575,25.231725 C24.1567312,25.0383938 25.0389563,24.1561688 25.231725,22.996575 C25.7903437,19.6435688 25.7903437,14.055075 25.7903437,12.9375 C25.7903437,9.58280625 25.7903437,6.23143125 25.231725,2.878425 Z M21.5958375,5.86861875 L20.400525,16.0284938 C20.3203125,16.7094 19.7693438,17.2380938 19.0854563,17.2891688 C19.049175,17.291925 19.0135125,17.2933313 18.9772313,17.2933313 C18.337275,17.2933313 17.7681938,16.8653812 17.5968,16.23915 L16.9445813,13.85505 C16.9445813,13.85505 18.3954938,10.89405 18.5141813,10.6523438 C18.623025,10.4306625 18.4725,10.3910625 18.4719937,10.39095 L11.3659312,17.4968438 C10.5540188,18.3089813 9.6103125,17.849475 8.81870625,17.0570813 C8.025525,16.2646875 7.5663,15.3204187 8.37815625,14.5085625 L13.5403875,9.346275 L9.63556875,8.27791875 C8.97418125,8.0971875 8.53419375,7.472925 8.58526875,6.78954375 C8.63690625,6.1059375 9.16531875,5.55440625 9.84594375,5.474475 L20.0061,4.2791625 C20.442825,4.227525 20.8767938,4.37889375 21.1860563,4.6886625 C21.4963875,4.9984875 21.6469125,5.4333 21.5958375,5.86861875 Z" id="Shape"></path>
                </g>
            </g>
        </g>
    </g>
</svg>
